dist/icons/svgs/exclamation-outline.svg

<svg xmlns="http://www.w3.org/2000/svg" width="24" height="24" fill="currentcolor" class="icon-exclamation-outline" viewBox="0 0 24 24">
  <path d="M13.4375 4.1875V15.4375C13.4375 15.9844 13.0078 16.375 12.5 16.375C11.9531 16.375 11.5625 15.9844 11.5625 15.4375V4.1875C11.5625 3.67969 11.9531 3.25 12.5 3.25C13.0078 3.25 13.4375 3.67969 13.4375 4.1875ZM12.5 20.75C11.7969 20.75 11.25 20.2031 11.25 19.5C11.25 18.8359 11.7969 18.25 12.5 18.25C13.1641 18.25 13.75 18.8359 13.75 19.5C13.75 20.2031 13.1641 20.75 12.5 20.75Z"/>
</svg>

<svg xmlns="http://www.w3.org/2000/svg" width="24" height="24" fill="currentColor" class="icon-exclamation-outline" viewBox="0 0 24 24">
  <path d="M13.438 4.188v11.25c0 .546-.43.937-.938.937-.547 0-.937-.39-.937-.937V4.188c0-.508.39-.938.937-.938a.95.95 0 0 1 .938.938M12.5 20.75c-.703 0-1.25-.547-1.25-1.25 0-.664.547-1.25 1.25-1.25.664 0 1.25.586 1.25 1.25 0 .703-.586 1.25-1.25 1.25"/>
</svg>
